X: 143
T:Missa Ad fugam / Credo
N: Derived from Jos1201c-Missa_Ad_fugam-Credo.krn
C: Josquin des Prez
%%abc-version 2.0
%%abcx-abcm2ps-target-version 5.9.1 (29 Sep 2008)
%%abc-creator hum2abc beta
%%abcx-conversion-date 2019/02/12 16:15:45
%%abc-edited-by Jesse Rodin
%%abc-edited-by Jesse Rodin; Victoria Chang 2012/02/02
%%abcx-initial-encoding-date 2012/02/02/
%%humdrum-veritas 3878469792
%%humdrum-veritas-data 1630611498
%%linebreak <none>
%%barnumbers 0
L: 1/4
M: 3/1
Q: 1/2=120
%%staves [1 2 3 4]
V: 1 clef=treble
V: 2 clef=treble-8
V: 3 clef=treble-8
V: 4 clef=bass
K: F
[V:1] G8G4 | 
[V:2] G6A2B3c | 
[V:3] z12 | 
[V:4] G,8E,4 | 
[V:1] A2A4GFE4 | 
[V:2] A8z2A2 | 
[V:3] c8c4 | 
[V:4] F,6G,2A,4 | 
[V:1] D4z4A4 | 
[V:2] B3AF2G2D4 | 
[V:3] d2d4cBA4 | 
[V:4] z2D,4G,4^F,2 | 
[V:1] B4A2A4G2 | 
[V:2] z2d4c2A2B2 | 
[V:3] G4z4d4 | 
[V:4] G,4D,2F,4E,D, | 
[V:1] G4z4F2G2 | 
[V:2] (3c2G2A2B8 | 
[V:3] _e4d2d4c2 | 
[V:4] C,4B,,4z4 | 
[V:1] A8G4 | 
[V:2] A3Bc3FG4 | 
[V:3] c4z4B2c2 | 
[V:4] F,8E,4 | 
[V:1] F2A3GF2E4 | 
[V:2] A8z2c2 | 
[V:3] d8c4 | 
[V:4] D,8A,4 | 
[V:1] D2B3AG4^F2 | 
[V:2] d2G2B3cd4 | 
[V:3] B2d3cB2A4 | 
[V:4] B,4G,4D,4 | 
[V:1] G8z4 | 
[V:2] B2c2B2G4F2 | 
[V:3] G2_e3dc4=B2 | 
[V:4] _E,3F,G,2C,2D,4 | 
[V:1] z12 | 
[V:2] G4z4c4 | 
[V:3] c8z4 | 
[V:4] C,8z4 | 
[V:1] z12 | 
[V:2] B2d4c2B2G2 | 
[V:3] z12 | 
[V:4] G,4B,2A,2G,2D2- | 
[V:1] z12 | 
[V:2] A4G2d2c2_e2- | 
[V:3] z12 | 
[V:4] D2C2B,2G,2A,4 | 
[V:1] z12 | 
[V:2] e2d4cBA2d2- | 
[V:3] z12 | 
[V:4] G,3F,D,2G,4F,2 | 
[V:1] z12 | 
[V:2] dcBAB2G2z2d2- | 
[V:3] z12 | 
[V:4] G,2D3CB,A,B,2G,2 | 
[V:1] z12 | 
[V:2] d2e2d2g4^f2 | 
[V:3] z12 | 
[V:4] D,2G,4B,2A,4 | 
[V:1] z12 | 
[V:2] g12 | 
[V:3] z12 | 
[V:4] G,3A,B,2C3B,G,2 | 
[V:1] z12 | 
[V:2] f12 | 
[V:3] z12 | 
[V:4] A,2B,3A,F,3G,A,B, | 
[V:1] z12 | 
[V:2] e8d4 | 
[V:3] z12 | 
[V:4] C2A,3G,E,2F,2G,2- | 
[V:1] z12 | 
[V:2] d6cBc4 | 
[V:3] z12 | 
[V:4] G,F,D,3E,F,G,A,4 | 
[V:1] z12 | 
[V:2] d4z2A2B2c2 | 
[V:3] z12 | 
[V:4] z2D,2E,2F,2G,2E,2 | 
[V:1] z12 | 
[V:2] d2_e2c2d4cB | 
[V:3] z12 | 
[V:4] F,2G,2A,2B,4A,G, | 
[V:1] z12 | 
[V:2] cBAGA2G2A4 | 
[V:3] z12 | 
[V:4] A,G,F,E,F,2G,4^F,2 | 
[V:1] z12 | 
[V:2] G2_e3dc4=B2 | 
[V:3] z12 | 
[V:4] G,2C,3D,E,F,D,4 | 
[V:1] E6F2G4 | 
[V:2] c6BAG4 | 
[V:3] z12 | 
[V:4] C,6D,2E,4 | 
[V:1] A6G2G4 | 
[V:2] F2f3ed2G4 | 
[V:3] A6B2c4 | 
[V:4] F,2D,2F,2G,2E,4 | 
[V:1] F3GA2G2E4 | 
[V:2] A4z2A3Bc2 | 
[V:3] d6c2c4 | 
[V:4] z2D,3E,F,G,A,4 | 
[V:1] D3EF2G2A2c2 | 
[V:2] d4B2d2e2f2 | 
[V:3] B3cd2c2A4 | 
[V:4] D,2B,3A,G,4F,2 | 
[V:1] B2d4cBA4 | 
[V:2] d2g4e2f2d2 | 
[V:3] G3AB2c2d2f2 | 
[V:4] G,3F,G,2A,2D,4 | 
[V:1] G4z2G2A2B2 | 
[V:2] B2_e3dc4BA | 
[V:3] _e2g4f_ed4 | 
[V:4] _E,4C,2E,2F,2G,2 | 
[V:1] c6BAB3c | 
[V:2] G2A2F2c4B2 | 
[V:3] c4z2c2d2_e2 | 
[V:4] C,8G,4 | 
[V:1] A4A2A2G4 | 
[V:2] c8c4 | 
[V:3] f6_ed_e3f | 
[V:4] F,8C,4 | 
[V:1] F2A3GF2E4 | 
[V:2] A8z2c2 | 
[V:3] d4d2d2c4 | 
[V:4] D,8A,4 | 
[V:1] D4z2G4^F2 | 
[V:2] d2G2B3cd4 | 
[V:3] B2d3cB2A4 | 
[V:4] B,4G,4D,4 | 
[V:1] G8z4 | 
[V:2] c2g4e2d4 | 
[V:3] G4z2c4=B2 | 
[V:4] E,4C,4G,4 | 
[V:1] G8G4 | 
[V:2] c6BAG4 | 
[V:3] c8z4 | 
[V:4] C,8C,4 | 
[V:1] E4E4A4 | 
[V:2] g6e2f2ed | 
[V:3] c8c4 | 
[V:4] C,8F,4 | 
[V:1] A6F4D2 | 
[V:2] c3Bc2d4cB | 
[V:3] A4A4d4 | 
[V:4] F,6D,2D,4- | 
[V:1] D4z4d4 | 
[V:2] A3GA4G4 | 
[V:3] d6B4G2 | 
[V:4] D,4D6B,2- | 
[V:1] d2d4d2B4- | 
[V:2] d4d2B4G2 | 
[V:3] G4z4g4 | 
[V:4] B,2G,2G,4G,4 | 
[V:1] B2G2G4z4 | 
[V:2] G2g6_e2_e2- | 
[V:3] g2g4g2_e4- | 
[V:4] G,2_E,4C,2C,4 | 
[V:1] G4G4G4 | 
[V:2] e2c2c3d=edcB | 
[V:3] e2c2c4z4 | 
[V:4] C,6D,2E,4 | 
[V:1] A2c4A2G4 | 
[V:2] A6F2G4 | 
[V:3] c4c4c4 | 
[V:4] F,8E,4 | 
[V:1] F3GA2B2A4 | 
[V:2] A2d3cB2c2A2 | 
[V:3] d2f4d2c4 | 
[V:4] D,3E,F,2G,2A,2F,2 | 
[V:1] D2B3AG4^F2 | 
[V:2] G3AB2c2A4 | 
[V:3] B3cd2_e2d4 | 
[V:4] G,6C,2D,4 | 
[V:1] G8z4 | 
[V:2] z2G4c2d2f2 | 
[V:3] G2_e3dc4=B2 | 
[V:4] _E,2C,2E,3F,D,4 | 
[V:1] G8G4 | 
[V:2] e6c2d3e | 
[V:3] c8z4 | 
[V:4] C,4z4G,4 | 
[V:1] A8A4 | 
[V:2] f8e3f | 
[V:3] c8c4 | 
[V:4] F,6G,2A,4 | 
[V:1] =B8d4 | 
[V:2] g8G4 | 
[V:3] d8d4 | 
[V:4] G,8B,4 | 
[V:1] c8=B4 | 
[V:2] c8d4- | 
[V:3] e8g4 | 
[V:4] A,6A,2G,3F, | 
[V:1] A6F2G3A | 
[V:2] d4c8 | 
[V:3] f8e4 | 
[V:4] D,2F,4E,D,C,4 | 
[V:1] F6G2A4 | 
[V:2] A4B4A4 | 
[V:3] d6B2c3d | 
[V:4] D,4z2G,4F,2 | 
[V:1] z2D4E2F4 | 
[V:2] z2G3FG2A4 | 
[V:3] B6c2d4 | 
[V:4] G,3F,G,2E,2D,4 | 
[V:1] G2=B4c2d4 | 
[V:2] G4g4f2ed | 
[V:3] z2G4A2B4 | 
[V:4] E,3F,G,3F,D,4 | 
[V:1] G6A2=B4 | 
[V:2] e3fg2c2d3e | 
[V:3] c2e4f2g4 | 
[V:4] C,2C3B,A,2G,4 | 
[V:1] z2c3=BA2G4 | 
[V:2] f2e2z2A2B2G2 | 
[V:3] c6d2e4 | 
[V:4] F,2A,3G,F,2E,4 | 
[V:1] z2A3GF2E4 | 
[V:2] A4z2d2e2c2 | 
[V:3] z2f3ed2c4 | 
[V:4] D,8A,3B, | 
[V:1] D2B4AG^F3E | 
[V:2] d2G2B3cd4- | 
[V:3] z2d3cB2A4 | 
[V:4] B,4G,4D,4 | 
[V:1] G12 ||  
[V:2] d2_e4d2d4 ||  
[V:3] G12 ||  
[V:4] G,12 ||  
[V:1]  [K:F] [K:clef=treble][M:2/1]G8 | 
[V:2]  [K:F] [K:clef=treble-8][M:2/1]d8 | 
[V:3]  [K:F] [K:clef=treble-8][M:2/1]z8 | 
[V:4]  [K:F] [K:clef=bass][M:2/1]G,8- | 
[V:1] G8 | 
[V:2] d4d4 | 
[V:3] z8 | 
[V:4] G,8 | 
[V:1] G8 | 
[V:2] e4e4 | 
[V:3] z8 | 
[V:4] C8 | 
[V:1] A8 | 
[V:2] e4e4 | 
[V:3] c8 | 
[V:4] A,8 | 
[V:1] A8 | 
[V:2] f8 | 
[V:3] c8 | 
[V:4] F,8 | 
[V:1] A8 | 
[V:2] e4f4 | 
[V:3] c8 | 
[V:4] A,8 | 
[V:1] =B8 | 
[V:2] g6fe | 
[V:3] d8 | 
[V:4] G,8- | 
[V:1] =B4B4 | 
[V:2] d2g4fe | 
[V:3] d8 | 
[V:4] G,4G,4- | 
[V:1] =B6AB | 
[V:2] fedcd4 | 
[V:3] d8 | 
[V:4] G,4G,4 | 
[V:1] c8 | 
[V:2] c4A4- | 
[V:3] e8 | 
[V:4] C,4C4- | 
[V:1] c4c4 | 
[V:2] A2B2c4- | 
[V:3] e4e4 | 
[V:4] C2B,2A,4 | 
[V:1] =B4B4 | 
[V:2] c2d2=B3A | 
[V:3] e6de | 
[V:4] G,8 | 
[V:1] A4c4- | 
[V:2] c8 | 
[V:3] f8 | 
[V:4] F,8 | 
[V:1] c2=B2A4 | 
[V:2] F4c4- | 
[V:3] f4f4 | 
[V:4] z4F,4 | 
[V:1] G8 | 
[V:2] c8 | 
[V:3] e4e4 | 
[V:4] C,8 | 
[V:1] F4D4 | 
[V:2] A4B4 | 
[V:3] d4f4- | 
[V:4] D,4B,,4- | 
[V:1] F6G2 | 
[V:2] F4B4- | 
[V:3] f2e2d4 | 
[V:4] B,,2C,2D,2E,2 | 
[V:1] A8 | 
[V:2] B4A4 | 
[V:3] c8 | 
[V:4] F,8 | 
[V:1] D8 | 
[V:2] B8 | 
[V:3] B4G4 | 
[V:4] G,4B,4- | 
[V:1] z8 | 
[V:2] G4B4- | 
[V:3] B6c2 | 
[V:4] B,2C2D4 | 
[V:1] z8 | 
[V:2] B2c2d4- | 
[V:3] d8 | 
[V:4] B,4G,4- | 
[V:1] z8 | 
[V:2] d2B2c4 | 
[V:3] G8 | 
[V:4] G,4E,4 | 
[V:1] A8 | 
[V:2] z4d4- | 
[V:3] z8 | 
[V:4] D,8- | 
[V:1] F4G4- | 
[V:2] d4B4 | 
[V:3] z8 | 
[V:4] D,4E,4 | 
[V:1] G4E4 | 
[V:2] c8 | 
[V:3] z8 | 
[V:4] C,8 | 
[V:1] F8 | 
[V:2] A4B4- | 
[V:3] d8 | 
[V:4] D,8 | 
[V:1] G8 | 
[V:2] B2A2G4 | 
[V:3] B4c4- | 
[V:4] E,8 | 
[V:1] A8 | 
[V:2] F4A4 | 
[V:3] c4A4 | 
[V:4] F,8 | 
[V:1] D8 | 
[V:2] G4B4 | 
[V:3] B8 | 
[V:4] G,8 | 
[V:1] z8 | 
[V:2] A2A4G2 | 
[V:3] c8 | 
[V:4] F,4E,4 | 
[V:1] z8 | 
[V:2] A8 | 
[V:3] d8 | 
[V:4] D,8 | 
[V:1] z4d4- | 
[V:2] B4G4 | 
[V:3] G8 | 
[V:4] z8 | 
[V:1] d4=B4 | 
[V:2] z4g4 | 
[V:3] z8 | 
[V:4] G,8 | 
[V:1] c8 | 
[V:2] e4f4- | 
[V:3] z8 | 
[V:4] A,8 | 
[V:1] d8 | 
[V:2] f4d4 | 
[V:3] z4g4- | 
[V:4] D,4G,4 | 
[V:1] z4G4 | 
[V:2] e8 | 
[V:3] g4e4 | 
[V:4] E,4C,4 | 
[V:1] A4A4 | 
[V:2] c4d4- | 
[V:3] f8 | 
[V:4] F,4D,4 | 
[V:1] B4B4 | 
[V:2] d4B4 | 
[V:3] g8 | 
[V:4] G,8 | 
[V:1] c8 | 
[V:2] A8 | 
[V:3] z4c4 | 
[V:4] A,4F,4- | 
[V:1] A4B4- | 
[V:2] z8 | 
[V:3] d4d4 | 
[V:4] F,4G,4 | 
[V:1] B4G4 | 
[V:2] B8 | 
[V:3] _e4_e4 | 
[V:4] _E,4G,4 | 
[V:1] A8- | 
[V:2] c4d4- | 
[V:3] f8 | 
[V:4] F,4D,4 | 
[V:1] A4G4- | 
[V:2] d2c2B2A2 | 
[V:3] d4e4- | 
[V:4] F,4G,4 | 
[V:1] G2E2G4 | 
[V:2] G6F2 | 
[V:3] e4c4 | 
[V:4] E,8 | 
[V:1] F4D2F2- | 
[V:2] A8- | 
[V:3] d8- | 
[V:4] D,6E,2 | 
[V:1] FGA4GF | 
[V:2] A8- | 
[V:3] d4c4- | 
[V:4] F,6G,2 | 
[V:1] GFEDE4 | 
[V:2] A8 | 
[V:3] c2A2c4 | 
[V:4] A,8 | 
[V:1] D4G4 | 
[V:2] z8 | 
[V:3] B4G2B2- | 
[V:4] D,4E,4 | 
[V:1] F2B4AG | 
[V:2] z8 | 
[V:3] Bcd4cB | 
[V:4] D,4G,4 | 
[V:1] AG^FEF4 | 
[V:2] z4d4- | 
[V:3] cBAGA4 | 
[V:4] D,8 | 
[V:1] G8 | 
[V:2] d4e4 | 
[V:3] G4c4 | 
[V:4] G,4C,4 | 
[V:1] z8 | 
[V:2] d2g4fe | 
[V:3] B2_e4dc | 
[V:4] G,8- | 
[V:1] z8 | 
[V:2] fedcd4 | 
[V:3] dc=BA=B4 | 
[V:4] G,8 | 
[V:1] G8 | 
[V:2] c4G4 | 
[V:3] c8 | 
[V:4] C,8- | 
[V:1] G4G4 | 
[V:2] c4e4 | 
[V:3] z8 | 
[V:4] C,4C,4 | 
[V:1] A4=B4 | 
[V:2] d8 | 
[V:3] z8 | 
[V:4] F,4G,4 | 
[V:1] c8- | 
[V:2] c4f4- | 
[V:3] c8 | 
[V:4] A,4F,4- | 
[V:1] c4c4 | 
[V:2] f2e2f4 | 
[V:3] c4c4 | 
[V:4] F,2G,2A,4 | 
[V:1] =B8 | 
[V:2] g8 | 
[V:3] d4e4 | 
[V:4] (3G,4E,4G,4 | 
[V:1] A6A2 | 
[V:2] z8 | 
[V:3] f8- | 
[V:4] F,4D,2F,2- | 
[V:1] A4A4 | 
[V:2] z8 | 
[V:3] f4f4 | 
[V:4] F,G,A,4G,F, | 
[V:1] G8 | 
[V:2] z8 | 
[V:3] e8 | 
[V:4] G,F,E,D,^C,3=B,, | 
[V:1] F6G2 | 
[V:2] z8 | 
[V:3] d6d2 | 
[V:4] D,6E,2 | 
[V:1] A4=B4 | 
[V:2] z4g4 | 
[V:3] d4d4 | 
[V:4] F,4G,4 | 
[V:1] c8 | 
[V:2] e4f4 | 
[V:3] c8 | 
[V:4] A,4F,4 | 
[V:1] z4d4- | 
[V:2] d8 | 
[V:3] B6c2 | 
[V:4] G,8- | 
[V:1] d2c2=B4 | 
[V:2] g8 | 
[V:3] d4e4 | 
[V:4] G,8 | 
[V:1] A8 | 
[V:2] c6d2 | 
[V:3] f8 | 
[V:4] F,8 | 
[V:1] G6A2 | 
[V:2] e6f2 | 
[V:3] z4g4- | 
[V:4] C6B,2 | 
[V:1] =B4c4- | 
[V:2] g8- | 
[V:3] g2f2e4 | 
[V:4] G,4C,4 | 
[V:1] c2=B2B2A2 | 
[V:2] g8 | 
[V:3] d8 | 
[V:4] G,8 | 
[V:1] c8 | 
[V:2] e8 | 
[V:3] c6d2 | 
[V:4] C,4C4 | 
[V:1] z8 | 
[V:2] c8- | 
[V:3] e4f4- | 
[V:4] A,4F,4 | 
[V:1] G8 | 
[V:2] c8 | 
[V:3] f2e2e2d2 | 
[V:4] C,8 | 
[V:1] A6G2 | 
[V:2] A6B2 | 
[V:3] f8 | 
[V:4] F,4A,4- | 
[V:1] A4F4 | 
[V:2] c4d4 | 
[V:3] z8 | 
[V:4] A,4D,4 | 
[V:1] E4E4 | 
[V:2] A8 | 
[V:3] c8 | 
[V:4] z4A,4 | 
[V:1] D6E2 | 
[V:2] z8 | 
[V:3] d6c2 | 
[V:4] B,6A,G, | 
[V:1] F4D2G2- | 
[V:2] z8 | 
[V:3] d4B4 | 
[V:4] F,4G,4 | 
[V:1] G2^F2F2E2 | 
[V:2] d8 | 
[V:3] A4A4 | 
[V:4] D,8 | 
[V:1] G8 | 
[V:2] B4_e4 | 
[V:3] G6A2 | 
[V:4] _E,6F,2 | 
[V:1] z8 | 
[V:2] d4g4- | 
[V:3] B4G2c2- | 
[V:4] G,4C,4 | 
[V:1] z8 | 
[V:2] g2f2g4 | 
[V:3] c2=B2=B2A2 | 
[V:4] G,8 | 
[V:1] z8 | 
[V:2] e4c4 | 
[V:3] c8 | 
[V:4] C,4C4- | 
[V:1] z8 | 
[V:2] d8 | 
[V:3] z8 | 
[V:4] C4=B,4 | 
[V:1] z8 | 
[V:2] z4c4 | 
[V:3] z8 | 
[V:4] C6B,A, | 
[V:1] z8 | 
[V:2] B2d4c2 | 
[V:3] z8 | 
[V:4] G,4F,4 | 
[V:1] z8 | 
[V:2] B2G2A4 | 
[V:3] z8 | 
[V:4] G,4z2C2 | 
[V:1] z8 | 
[V:2] G4F4 | 
[V:3] z8 | 
[V:4] B,2D4C2 | 
[V:1] z8 | 
[V:2] G2g4f2 | 
[V:3] z8 | 
[V:4] B,2G,2A,4 | 
[V:1] z8 | 
[V:2] g2e3dd2- | 
[V:3] z8 | 
[V:4] G,2A,4F,2 | 
[V:1] z8 | 
[V:2] d2c2B2d2- | 
[V:3] z8 | 
[V:4] E,4D,3E, | 
[V:1] z8 | 
[V:2] d2cBA2c2 | 
[V:3] z8 | 
[V:4] F,2G,4F,2 | 
[V:1] z8 | 
[V:2] B2G4c2 | 
[V:3] z8 | 
[V:4] G,4C,4 | 
[V:1] z8 | 
[V:2] d2f2e2g2- | 
[V:3] z8 | 
[V:4] B,,4C,4- | 
[V:1] z8 | 
[V:2] g2f2e3d/c/ | 
[V:3] z8 | 
[V:4] C,2D,2E,2F,2 | 
[V:1] z8 | 
[V:2] B4c4 | 
[V:3] z8 | 
[V:4] G,4A,2F,2- | 
[V:1] z8 | 
[V:2] d8 | 
[V:3] z8 | 
[V:4] F,2G,4F,2 | 
[V:1] z8 | 
[V:2] z4f4 | 
[V:3] z8 | 
[V:4] G,2F,E,D,4 | 
[V:1] z8 | 
[V:2] e4d4- | 
[V:3] z8 | 
[V:4] C,4G,4 | 
[V:1] z8 | 
[V:2] d2c2c4- | 
[V:3] z8 | 
[V:4] z2A,4F,2- | 
[V:1] z8 | 
[V:2] c2B2A2c2- | 
[V:3] z8 | 
[V:4] F,2D,2F,3E, | 
[V:1] z8 | 
[V:2] cBG3ABc | 
[V:3] z8 | 
[V:4] C,3D,E,F,G,2- | 
[V:1] z8 | 
[V:2] d2c4=B2 | 
[V:3] z8 | 
[V:4] G,2E,2D,4 | 
[V:1] z8 | 
[V:2] c4z2G2 | 
[V:3] z8 | 
[V:4] z2C,2D,2E,2 | 
[V:1] z8 | 
[V:2] A3Bc2d2 | 
[V:3] z8 | 
[V:4] F,3G,A,2B,2 | 
[V:1] z8 | 
[V:2] c2f4e2 | 
[V:3] z8 | 
[V:4] C2A,2G,4 | 
[V:1] A6G2 | 
[V:2] f6e2 | 
[V:3] z8 | 
[V:4] F,4D,4 | 
[V:1] A4B2A2- | 
[V:2] f4g2f2- | 
[V:3] z8 | 
[V:4] z8 | 
[V:1] A2GFE4 | 
[V:2] f2ed^c3=B | 
[V:3] z8 | 
[V:4] z4A,4 | 
[V:1] D8 | 
[V:2] d4z4 | 
[V:3] d6c2 | 
[V:4] B,6A,2 | 
[V:1] z8 | 
[V:2] z8 | 
[V:3] d4_e2d2- | 
[V:4] B,4C2B,2- | 
[V:1] z8 | 
[V:2] z8 | 
[V:3] d2cBA4 | 
[V:4] B,2A,G,^F,4 | 
[V:1] d6c2 | 
[V:2] d4e4 | 
[V:3] G8 | 
[V:4] G,8- | 
[V:1] d4e2d2- | 
[V:2] d4g4- | 
[V:3] z8 | 
[V:4] G,4G,4 | 
[V:1] d2c=BA4 | 
[V:2] g4^f4 | 
[V:3] z8 | 
[V:4] D,8 | 
[V:1] G6A2 | 
[V:2] g4e2c2 | 
[V:3] g6f2 | 
[V:4] E,4C,4 | 
[V:1] =B4c2B2 | 
[V:2] d4z2d2 | 
[V:3] g4a2g2- | 
[V:4] G,4F,2G,2 | 
[V:1] G2c4=B2 | 
[V:2] e2g6 | 
[V:3] g2fed4 | 
[V:4] E,2C,2G,4 | 
[V:1] c8 | 
[V:2] e4c4 | 
[V:3] c6d2 | 
[V:4] A,6B,2 | 
[V:1] z8 | 
[V:2] z8 | 
[V:3] e4f2e2 | 
[V:4] C4D2C2- | 
[V:1] z8 | 
[V:2] z8 | 
[V:3] c2f4e2 | 
[V:4] C2A,2G,4 | 
[V:1] A6=B2 | 
[V:2] c4d4 | 
[V:3] f8 | 
[V:4] F,6F,2 | 
[V:1] c4d2c2- | 
[V:2] c4f4- | 
[V:3] z8 | 
[V:4] F,8 | 
[V:1] c2=BAG4 | 
[V:2] f2ede4 | 
[V:3] z8 | 
[V:4] C,8 | 
[V:1] F8 | 
[V:2] z4f4 | 
[V:3] d6e2 | 
[V:4] z8 | 
[V:1] z8 | 
[V:2] d4e2d2- | 
[V:3] f4g2f2- | 
[V:4] z8 | 
[V:1] A4A4 | 
[V:2] d2cBc2A2 | 
[V:3] f2edc4 | 
[V:4] z4F,4 | 
[V:1] D4d4- | 
[V:2] B4G4 | 
[V:3] B8 | 
[V:4] G,6G,2 | 
[V:1] d2c2=B4 | 
[V:2] z4g4- | 
[V:3] z8 | 
[V:4] G,8 | 
[V:1] A8 | 
[V:2] g2^fe^f4 | 
[V:3] d4d4 | 
[V:4] D,8 | 
[V:1] G6A2 | 
[V:2] g6f2 | 
[V:3] G4g4- | 
[V:4] E,6F,2 | 
[V:1] =B4c4- | 
[V:2] d4g4- | 
[V:3] g2f2e4 | 
[V:4] G,4C,4 | 
[V:1] c2=B2B2A2 | 
[V:2] g4g4- | 
[V:3] d8 | 
[V:4] G,8 | 
[V:1] c8 | 
[V:2] g2f2e4- | 
[V:3] c6d2 | 
[V:4] C,4C4 | 
[V:1] z8 | 
[V:2] e2d2c4- | 
[V:3] e4f4- | 
[V:4] A,4F,4 | 
[V:1] z4G4 | 
[V:2] c4B4 | 
[V:3] f2e2e2d2 | 
[V:4] G,8 | 
[V:1] A4D4 | 
[V:2] c4f4- | 
[V:3] f8 | 
[V:4] F,8 | 
[V:1] F6G2 | 
[V:2] f2g2a4- | 
[V:3] z8 | 
[V:4] D,8 | 
[V:1] E8 | 
[V:2] a2g2a4 | 
[V:3] z4c4 | 
[V:4] A,8 | 
[V:1] D4B4- | 
[V:2] f4g4- | 
[V:3] d4G4 | 
[V:4] B,8 | 
[V:1] B2A2G4- | 
[V:2] g2f2d4- | 
[V:3] B6c2 | 
[V:4] G,8 | 
[V:1] G2^F2F2E2 | 
[V:2] d8 | 
[V:3] A8 | 
[V:4] D,8 | 
[V:1] G8- | 
[V:2] d4_e4- | 
[V:3] G8- | 
[V:4] G,8- | 
[V:1] G8- | 
[V:2] e4d2c2 | 
[V:3] G8- | 
[V:4] G,8- | 
[V:1] G8- | 
[V:2] B6c2 | 
[V:3] G8- | 
[V:4] G,8- | 
[V:1] G8 |]  
[V:2] d8 |]  
[V:3] G8 |]  
[V:4] G,8 |]  



